X: 7
T: Hunter's House, The
C: Ed Reavy
Z: Sean Perry
S: https://thesession.org/tunes/472#setting50906
R: reel
M: 4/4
L: 1/8
K: Gmaj
|:B2dB cAFA|G2BG DGBG|B2dB cAFA|GBAG FGEF|
DGFG BGFG|BGAF GABc|defg agfd|cAFA G3 A:|
|:B2gB aBgB|B/B/B gf edcB|A2aA bAaA|dfaf gfed|
B2gB aBgB|B/B/B gf edcB|cBAg fga/g/f|gdBd cAFA:|

%-------------------- TUNE SEPARATOR --------------------%

